X:1
T: Mr. Alexander Lawson
C:Alexander Walker
R:Strathspey
Q: 128
K:E
M:4/4
L:1/16
|:B,2|E3F G3F EB,3 B,3C|E3B edcB c6 d2|eg3 ce3 Be3 GB3|F3E G3F C4 B,2C2|
E3F G3F EB,3 B,3C|E3B edcB c6 d2|eg3 ce3 Be3 GB3|F3E G3F C4 C2g2|
eE3 E3g fE3 E3g|a3e g3e cf3 f3g|eE3 E3g fE3 E3g|a3e g3e c6 d2|
e3E EEE2 G3E G3e|f3F FFF2 AF3 A3a|gb3 fg3 e3f g3f|e3c BG3 F4 E2:|
